X:1
T:Title
%%score 1 { 2 | 3 }
L:1/8
Q:1/4=90
M:6/8
K:G
V:1 treble nm="Grand Piano, Soprano"
V:2 treble nm="Choir Pad, The Children May Come"
V:3 bass 
V:1
 DD[GB] [GB][GB][DA] | [DG] [DF]2 [EG] [FA]2 | [FA][FA][FA] [FA][FA][EG] | [FA] [GB]2 [GB] [FA]2 | %4
w: By~William~Howard~Doane * * * * *||||
 DD[GB] [GB][GB][DA] | [DG] [DF]2 [EG] [FA]2 | [FA][FA][FA] [FA][FA][EG] | [FA] [GB]2 [FA] G2- | %8
w: ||||
 G [Gd]2 [Gd][Gd][Gc] | [GB] [GB]2- [GB] [FA]2- | [FA] [FA]2- [FA] [FA]2 | %11
w: |||
 [FA][FA][EG] [FA] [GB]2- | [GB] [Gd]2 [Gd][GB][FA] | [=FG] [EG]2- [EG] [Ge]2- | %14
w: |||
 [Ge][Gd][GB] [DG][DA][DG] | [DF] [DG]2- [DG]3- | [DG]3 z3 |] %17
w: |||
V:2
 B,B,D DDC | B, D2 D D2 | DDD DDD | D D2 D D2 | B,B,D DDC | B, D2 D D2 | DDD DDD | %7
 D D2 C[K:bass] B,2- | B, B,2 B,B,[K:treble]E | D D2- D D2- | D D2- D D2 | DDD D D2- | %12
 D[K:bass] B,2 B,DC | B,[K:treble] C2- C C2- | CB,D[K:bass] B,CB, | A, B,2- B,3- | B,3 z3 |] %17
V:3
 G,G,G, G,G,G, | G, D,2 D, D,2 | D,D,D, D,D,D, | D, G,2 G, D,2 | G,G,G, G,G,G, | G, D,2 D, D,2 | %6
 D,D,D, D,D,D, | D, G,2 D, [G,,G,]2- | [G,,G,] G,2 G,G,G, | G, D,2- D, D,2- | D, D,2- D, D,2 | %11
 D,D,D, D, G,2- | G, G,2 G,G,G, | G, C,2- C, C,2- | C,D,D, D,D,D, | D, G,2- G,3- | G,3 z3 |] %17

